X: 56
T: A Blacktail Deer
C: Teton Sioux band 1911-1914
N: Derived from sioux056.krn
O: South Dakota, U.S.A.
N: Teton Sioux Music by Frances Densmore, 1918
Z: transcribed to **kern format by Craig Sapp
L: 1/8
M: 2/4
Q: 1/4=58
K: Bb clef=bass
%%linebreak <none>
D2D F [I:setbarnb 2]| 
D2(D2- | 
D3A,) ]|:  
A,2A, C | 
A,2(A,2- | 
A,3G,) | 
G, A,- A, G, | 
G,2G,2 | 
G, G,-G,2 | 
G,< G, (F, D,) ||  
[M:3/4]F,6 ||  
[M:2/4]F,2F, G, | 
D,2D,2- | 
D,4 ||  
[M:3/4]C,< D,D,2D, C, ||  
[M:2/4]B,,2(C, B,,) | 
G,,2B,,2 ||  
[M:3/4]G,,6 ||  
[M:2/4]G,,4 :|]  



